X: 1512
T: Polonäs ur Anders Fredrik Alards notbok nr 52
S: efter Anders Fredrik Alard
B: Anders Fredrik Alards notbok
M: 3/4
L: 1/16
B: [[http://www.smus.se/earkiv/fmk/browselarge.php?lang=sw&katalogid=M+131&bildnr=00014|SMUS - katalog M131 bild 14]] nr 52
B: Jämför [[Notböcker/John Johanssons noter]] [[http://www.sormlandsmusikarkiv.se/noter/johansson_john/john_johansson.html|samling 2]] (sida 68 polonäs nr 87)
B: Jämför [[http://www.smus.se/earkiv/fmk/browselarge.php?lang=sw&katalogid=MMD+47&bildnr=00010|SMUS - katalog MMD47 bild 10]] nr 29 ur [[Notböcker/Daniel Danielssons notbok]]
B: Jämför [[http://www.smus.se/earkiv/fmk/browselarge.php?lang=sw&katalogid=MMD+66&bildnr=00101|SMUS - katalog MMD66 bild 101]] nr 76
B: Jämför [[http://www.smus.se/earkiv/fmk/browselarge.php?lang=sw&katalogid=Ma+13d&bildnr=00004|SMUS - katalog Ma13d bild 4]] nr 6 efter [[Personer/Jean E Blomgren]]
B: Jämför [[http://www.smus.se/earkiv/fmk/browselarge.php?lang=sw&katalogid=MMD+31&bildnr=00035|SMUS - katalog MMD31 bild 35]] nr 43 från [[Platser/Berlin]], [[Platser/Tyskland]].
N: Se även [[Musik/1431|+]]
O: Östergötland
R: Polonäs
Z: Nils L
K: D
d'4a2g2 f2ed | cdec A8 | B2G2 B2gf edcB | A2F2 D2fe dcBA | G2F2 E2g2 f2ed | cdef e4 d4 :: 
a4 e2d2 c2BA | GABG E8 | e2ce d2Bd c2A2 | cBA^G A4  A,4  | 
d2f2 a2g2 f2ed | cdef g2f2 f2e2 | dAdf a2g2 f2ed | cdef gagf e2A2 | 
B2G2 B2gf edcB | A2F2 D2fe dcBA | G2F2 E2g2 f2ed | cdef e4 d4 :|s
(:musicend:)
(:music:)
